X: 331
T: Leslie
C:
O:Scotland
B:Keith Norman MacDonald : "The Skye collection of the best reels & strathspeys extant" : 1887
Z:Ralph Palmer
N:Please don't blame me for the beams - I'm transcribing it the way it was written. See the next (alternate) take!
R:Reel
M:C|
L:1/8
K:D
A | {/c}d2 (fd)ec Ac | Bc{/c}dB AFDF | {/F}G2 (BG)AF DF | {/F}GECE {FE}D2 D :|
g | Tf2 (dfec) Ac | Bc{/c}dB AFDg | f2 (dfec) Ac | Bgec {/c}d2 (dg) |
Tf2 (dfec) Ac | Bc{/c}dB AFDF | GBGB FAFA | {/F}GE{/B,}CE {FE}D2 D |]


